X:452
T: Eine Schwalbe macht keinen Sommer (167a), S. 362
N: T0340
O: Luxemburg
S: Singendes Volk, Esch-Alzette, 1937 posth.]
N: Junglinster, hhh Vater des Verfassers, 1900;
N: (167b)- Straen, fff Witry, 13.12.1932;
N: (167c)- hhh Anton Koob, Liederheft, 1861
R: Abschieds- und Wanderlieder, Heimatlieder,  Liebeslied]
M: 4/4
L: 1/16
K: D
 | A6G2F3AB3F | A4G4E4E4
A6A2c3BA3G | F4D4D4
A2A2 | d6c2e3dc3d | B4B4
e3dc3d | A2A2
A2d2c2B2A3G | F4D4D4
A3B | A3GG2G2G4
A2B2 | A4F2F2F4
A2A2 | d4d2d2d4
A2A2 | d3dd3dd4
A3G | F4D3DD4
d3c | B4G3FE4
e3e | d6d2c4B2c2 | d8z4
A3G | F4D3DD4
d3c | B4G3FE4
e3e | d6d2c4B2c2 | d8z8

